X:621
T:Reel 621
M:4/4
K:Gmaj
L:1/8
D2|G2Gc BAGB|d2ec dBAB|G2GA BABd| (3efg dB c2BA|G2GA BABd|efge dBAG|gfge dege|dBGB A2G2|d2de dBgB|dBgB ABA2|Bdde dega|baga a2ge|dBge dBAB|cBcd eAAB|cdec B2dB|AGBG A2G2|
